X:1
T:Piano Concerto No. 1
T:Piano Concerto No. 1
T:2nd Movement
T:Peter Tchaikovsky
T:Arr. for 2 pianos by the composer
C:Peter Tchailovsky
Z:Arr. for 2 Pianos by the composer
%%score { ( 1 3 ) | ( 2 4 ) } { ( 5 7 8 ) | ( 6 9 10 ) }
L:1/8
Q:1/4=60
M:6/8
K:Db
V:1 treble nm="Piano I" snm="Pno. I"
V:3 treble 
V:2 bass 
V:4 bass 
V:5 treble nm="Piano II" snm="Pno. II"
V:7 treble 
V:8 treble 
V:6 treble 
V:9 treble 
V:10 treble 
V:1
"^Andantino simplice" z6 | z6 | z6 | z6 | z6 | z6 | z6 | z6 | z6 | z6 | z6 |[Q:1/4=54] z6 | %12
!p![Q:1/4=60] a3 e2 f | a6 | dcB e2 e | A6 | ABd!<(! e2 e | def g2 g!<)! | %18
!mp! [Ff][Gg][Aa][Q:1/4=50]"_riten." [Bb][dd'][cc'] | %19
 [cfc'][Q:1/4=60]"^a tempo" z z =B,/C/F/=A/c/f/ | z6 | z2 z z z!p! [=Af] | %22
 [B=d]2 [^G=e] [=Ac]2 [=D=F] | [^C=EB] z [CEB] z [B,=C][=A,^C] | [=A,=D] z z4 | z6 | z6 | %27
 z2 z z2!p! =a |!mp! [=a=b]/[=g^c']/[^f=d']/[gc']/[ad']/[fb]/ [ga]-[ga]/[ga][ga]/ | %29
!p! [=a=b]/[=g^c']/[^f=d']/[gc']/[ad']/[fb]/ [ga]-[ga]/[ga][ga]/ |!mp! ^f/=a/=b=d =e/=g/a^c | %31
!p! ^f/=a/=b=d =e/=g/a^c | %32
!p! [=A=d]/[=G^c]/[^F=B]/[=EA]/[=DG]/[^CF]/ [=B,E]/[CF]/[DG]/[EA]/[FB]/[Gc]/ | %33
 [=A=d]/[=G^c]/[^F=B]/[=EA]/[=DG]/[^CF]/ [=B,E]/[CF]/[DG]/[EA]/[FB]/[Gc]/ | %34
!<(! [=A=d]/[=B=e]/[^c^f]/[d=g]/[e=a]/[f=b]/!<)!!p! [g^c']/[c'=e']/[gc']/.[gb]/.[g=a]/.[gb]/ | %35
 [=g^c']/[c'=e']/[gc']/.[g=b]/.[g=a]/.[gb]/ [gc']/[c'e']/[gc']/.[gb]/.[ga]/.[gb]/ | %36
!>(! .[=g=a]/.[g=b]/.[ga]/.[gb]/.[ga]/.[gb]/ .[ga]/.[gb]/.[ga]/.[gb]/.[ga]/.[gb]/!>)! | %37
!pp! .[^f=a]/.[=df=b]/.[dfa]/.[dfb]/.[dfa]/.[dfb]/ [dfa]/ z/ z z | %38
[K:bass] .[=D,^F,=A,]/.[D,F,=B,]/.[D,F,A,]/.[D,F,B,]/.[D,F,A,]/.[D,F,B,]/ .[D,F,A,]/ z/ z z | %39
 .[=D,^F,=A,]/.[D,F,=B,]/.[D,F,A,]/.[D,F,B,]/.[D,F,A,]/.[D,F,B,]/ .[D,F,A,]/ z/ z z | %40
[K:treble] !>!^C3[Q:1/4=54] =C z z | %41
!p![Q:1/4=60] .[_D=F_A]/.[DFB]/.[DFA]/.[DFB]/.[DFA]/.[DFB]/ .[CGA]/.[CGB]/.[CGA]/.[CG=A]/.[EGB]/.[EGc]/ | %42
 .[FAd]/.[FA]/.[FAB]/.[FAc]/.[FAd]/.[FAf]/ .[Gce]/.[Gc=d]/.[Gce]/.[Gcf]/.[Gcd]/.[Gce]/ | %43
 .[F_d]/.[F=G]/.[FA]/.[F=A]/.[DFB]/.[DFd]/ .[C_G_A]/.=G/.A/.=A/.B/.c/ | %44
 .[FAd]/.[FA]/.[FAB]/.[FAc]/.[FAd]/.[FAf]/ .[Gce]/.[Gc=d]/.[Gce]/.[Gcf]/.[Gcd]/.[Gce]/ | %45
 .[F_df]/.[=Ed=e]/.[Fdf]/.[Gdg]/.[Ede]/.[Fdf]/"_cresc." .a/.=g/.a/.b/.=g/.a/ | %46
 .[=EAd=e]/.[FAdf]/.[Ada]/.[Gdg]/.[Fdf]/.[DAd]/ .[_EGd_e]/.[Gdg]/.[dgd']/.[__Bd__b]/.[Ada]/.[Gdg]/ | %47
!p! .[dd']/.[ee']/.[dd']/.[ee']/(3.[dd']/.[ee']/.[dd']/ (3.[ee']/.[dd']/.[ee']/(3.[dd']/.[ee']/.[dd']/(3.[ee']/.[dd']/.[ee']/ | %48
 Tc'/e'/d'/4e'/4d'/4e'/4 .c'/.d'/!>(! .a'/4.g'/4.f'/4.e'/4.d'/4.c'/4.b/4.a/4(3.c'/4.b/4.a/4(3.g/4.f/4.e/4!>)! | %49
!p! z/ [dfa][Adf][FAd]/ z/ [cga][Acg][GAc]/ | z/ [dfa][Adf][FAd]/ z/ [cga][Acg][GAc]/ | %51
 z/ [fa][Af][FAd]/ z/ [cga][Acg][GAc]/ | z/ [dfa][Adf][FAd]/ z/ [cga][Acg][GAc]/ | %53
 z/"_cresc." [dfa][Adf][FAd]/ z/ [ega][Aeg][GAe]/ | z/ [dfa][Adf][FAd]/ z/ [gd'][dg][Gd]/ | %55
 z/ [fad'][da][Ad]/ z/!mf! [=ebd'][Beb][Bce]/ |!mp! .[=Acf] z z =E/F/=A/c/=e/f/ | %57
 !arpeggio![=Afc'] z/ [Ac]/[Q:1/4=50]"_ritenuto" [cf]/[f=a]/ [ac']/[c'f']/[Q:1/4=40][f'=a']/!8va(!!tenuto![a'c'']/!fermata![c''f'']!8va)! || %58
[K:F][Q:1/4=210]"^Prestissimo" z3[K:bass] ^G,A, z | z =B,C z z[K:treble] [Af] | %60
 [Bd] z [^Ge][Ac] z [D=F] |!mp! !^![_DEB] z !^![D=EB] z !>!_DC |"_cresc." z E/F/ z e/f/ z ^g/a/ | %63
 z !>!e'/f'/ z!8va(! _b'/=b'/!f!.[f'=a'f'']!8va)! !>![af'] |!>(! [bd'] z [^ge'][ac'] z [d=f] | %65
 .[_deb] z .[d=eb] z !>!_dc | z ^d/e/ z ^B/^c/ z ^G/A/!>)! |!mp! z E/F/ z e/f/ ^d/e/a | %68
!mf! z!<(! [Aa]/[I:staff +1]B/[I:staff -1][=B=b]/[I:staff +1]c/[I:staff -1] [^c^c']/[I:staff +1]d/[I:staff -1][^d^d']/[I:staff +1]e/!<)!!ff![I:staff -1] [ff'] | %69
!>(! =B/f/e/_b/a/_e'/ ^g/d'/=g/[^c'=g']/=c'/[^f'=c'']/!>)! | %70
!mp! [=b=f'=b'] ^^f/^g/f/g/ f/g/f/g/g/a/ | %71
 =b/a/^f/e/[I:staff +1]^c/A/[I:staff -1] ^F/E/^C/A,/[I:staff +1] ^F,/E,/ | %72
!mf![I:staff -1] z!<(! [A,A]/[I:staff +1]B,/[I:staff -1][=B,=B]/[I:staff +1]C/[I:staff -1] [^C^c]/[I:staff +1]D/[I:staff -1][^D^d]/[I:staff +1]E/!<)!!ff![I:staff -1] [Ff] | %73
!>(! =B,/F/E/_B/A/_e/ ^G/d/=G/[^c=g]/=c/[^fc']/!>)! |!mp! [=B=f=b]!p! ^^F/^G/F/G/ F/G/F/G/G/A/ | %75
 =B/A/^F/E/ z z2 z | d/^c/A/E/ z[I:staff +1] =B,/A,/^F,/E,/[I:staff -1] z | %77
 ^f/e/^c/A/ z D/^C/[I:staff +1]A,/E,/[I:staff -1] z | =b/a/g/e/ z2 =B,/A,/[I:staff +1]G,/E,/ | %79
[I:staff -1] z6[Q:1/4=200] | z .^g/.a/.g/.a/ z .g/.a/.g/.a/ | z ^g/a/^g/a/ z ^g/a/^g/a/ | %82
 z ^g/a/^g/a/ z ^g/a/^g/a/ | z ^g/a/g/a/ z g/a/g/a/ | z ^g/a/g/a/ z g/a/g/a/ | %85
 z ^g/a/^g/a/ z ^g/a/^g/a/ | z ^g/a/^g/a/ z ^g/a/^g/a/ | z ^g/a/g/a/ z g/a/g/a/ | %88
 z ^e/^f/e/f/ z!mp! A/^A/!pp!^c/d/ | z ^B/^c/B/c/ z ^d/e/d/e/ | z ^e/^f/e/f/ z!mp! A/^A/!pp!^c/d/ | %91
 z ^B/^c/B/c/ z ^d/e/d/e/ | z ^c/=d/c/d/ z c/d/^e/^f/ | z ^d/=e/d/e/ z ^f/g/f/g/ | %94
 z ^c/d/c/d/ z c/d/^e/^f/ | z ^d/=e/d/e/ z ^f/g/f/g/ | x6 | x6 | z/!pp! F/E/_E/D/d/ ^c/d/D/F/B/d/ | %99
 _e/=B/c/d/e/=e/ f/e/f/d/_e/d/ | _e/=B/c/d/e/=e/ f/e/f/d/_e/^c/ | _e/^c/e/d/A/B/ d/e/d/e/A/B/ | %102
 A/^G/A/F/D/d/ ^c/d/D/F/B/d/ | _e/=B/c/d/e/=e/ f/e/f/d/_e/d/ | _e/=B/c/d/e/=e/ f/e/f/d/_e/^c/ | %105
 _e/^c/e/d/A/B/ d/e/d/e/A/B/ |!p! d/ z/!<(! x x4 | x6 | x6 | x6!<)! | %110
!mf!!8va(! !>![g'g'']!8va)! z z z2 z | z6 | z6 | z2 z z2!pp! [Af] | [Bd]z!>![^Ge] [Ac]z[D=F] | %115
 [_DEB]z[D=EB] z !>!_DC |"_cresc." z E/F/ z e/f/ z ^g/a/ | %117
 z !>!e'/f'/ z!8va(! _b'/=b'/!f! .[f'=a'f'']!8va)! !>![af'] |!>(! [bd'] z [^ge'][ac'] z [d=f] | %119
 .[_deb] z .[d=eb] z !>!_dc | z ^d/e/ z ^B/^c/ z ^G/A/!>)! |!mp! z E/F/ z e/f/ ^d/e/a | %122
!mf! z!<(! [Aa]/[I:staff +1]B/[I:staff -1][=B=b]/[I:staff +1]c/[I:staff -1] [^c^c']/[I:staff +1]d/[I:staff -1][^d^d']/[I:staff +1]e/!<)!!ff![I:staff -1] [ff'] | %123
!>(! =B/f/e/_b/a/_e'/ ^g/d'/=g/[^c'=g']/=c'/[^f'=c'']/!>)! | %124
!mp! [=b=f'=b'] ^^f/^g/f/g/ f/g/f/g/g/a/ | %125
 =b/a/^f/e/[I:staff +1]^c/A/[I:staff -1] ^F/E/^C/A,/[I:staff +1] ^F,/E,/ | %126
!mf![I:staff -1] z!<(! [A,A]/[I:staff +1]B,/[I:staff -1][=B,=B]/[I:staff +1]C/[I:staff -1] [^C^c]/[I:staff +1]D/[I:staff -1][^D^d]/[I:staff +1]E/!<)!!ff![I:staff -1] [Ff] | %127
!>(! =B,/F/E/_B/A/_e/ ^G/d/=G/[^c=g]/=c/[^fc']/!>)! |!mp! [=B=f=b]!p! ^^F/^G/F/G/ F/G/F/G/G/A/ | %129
 =B/A/^F/E/ z z2 z | d/^c/A/E/ z[I:staff +1] =B,/A,/^F,/E,/[I:staff -1] z | %131
 ^f/e/^c/A/ z D/^C/[I:staff +1]A,/E,/[I:staff -1] z | %132
 =b/a/e/^c/ z E/C/[I:staff +1]A,/E,/[I:staff -1] z | =B/A/E/^C/ z z2 z | %134
!f![Q:1/4=120]"^ad lib." x2[K:bass] x _G,/4__B,/4[K:treble]_D/4_E/4_G/4__B/4_d/4_e/4(5:4:5_g/4__b/4_d'/4_e'/4_g'/4 | %135
[Q:1/4=100]!8va(! (5:4:5_c''/4__b'/4_g'/4_e'/4_d'/4!8va)![I:staff +1](5:4:5_c'/4__b/4_g/4_e/4_d/4[I:staff -1](5:4:5_a'/4g'/4e'/4d'/4__b/4[I:staff +1](5:4:5_a/4=e/4_e/4d/4__B/4[I:staff -1](5:4:5e'/4d'/4b/4_a/4_g/4[I:staff +1](5:4:5e/4d/4B/4_A/4_G/4 | %136
[Q:1/4=90]"_dim."[I:staff -1] (5:4:5_c'/4__b/4_g/4_e/4_d/4[I:staff +1](5:4:5_c/4__B/4_G/4_E/4_D/4[I:staff -1](5:4:5_a/4g/4e/4d/4__B/4[I:staff +1](5:4:5_A/4G/4E/4D/4__B,/4[I:staff -1](5:4:5e/4d/4B/4_A/4_G/4[I:staff +1](5:4:5E/4D/4B,/4_A,/4_G,/4 | %137
[Q:1/4=80][I:staff -1] (5:4:5_c/4__B/4_G/4_E/4_D/4[I:staff +1](5:4:5_C/4__B,/4_G,/4_E,/4_D,/4[I:staff -1](5:4:5_A/4G/4E/4D/4__B,/4[Q:1/4=70] z[K:bass] x2 | %138
[K:treble][Q:1/4=60]!p! x2 x !fermata!_c2 __B[Q:1/4=48] | %139
[Q:1/4=50]"^Quasi andante"!pp! A3!<(! =D_E__B!<)! |!p! _B2!pp! =G- G2 A- | A2 _B- B2 _c | %142
[Q:1/4=40]"^riten." .=c._d._e .f._g.=g | =c'2 __b b_c'b | %144
[Q:1/4=92]!pp! (3_c'/__b/c'/!<(!(3b/c'/b/(3c'/b/c'/!<)!!mp! Tb2!p! b/4!<(!c'/4b/4_a/4 | %145
__b/4_d'/4_e'/4_g'/4!<)!!mp![Q:1/4=80](20:16:10(1:1:10_c''/4!>(!__b'/4_a'/4g'/4_f'/4[Q:1/4=70]_e'/4_d'/4c'/4b/4[Q:1/4=50]a/4 z/5 (20:16:9_f/4_e/4=d/4e/4[Q:1/4=40]=e/4=f/4_g/4=g/4!>)!a/4!pp![Q:1/4=30] !fermata!_c'/>b/ || %146
[K:Db][Q:1/4=60]"^Tempo I"!p! a3 e2 b | %147
!pp! Ta/4b/4a/4b/4!<(!a/8b/8a/8b/8a/8b/8a/8b/8a/8b/8a/8b/8a/8b/8a/8b/8a/8b/8a/8b/8a/8b/8a/8b/8a/8b/8a/8b/8a/8b/8a/8b/8!<)!!p! =g/a/ | %148
 dcB e2 e | A6 |!p! ABd e2 e | de!<(!f g2 g | fga!<)!!mp!!>(! __b2!p! b!>)! | %153
!p! __B/=d/e/f/g/=g/ (3a/_b/c'/(3=d'/e'/f'/(3g'/=g'/a'/ | %154
!pp! a'/4b'/4a'/4b'/4!<(!a'/8b'/8a'/8b'/8a'/8b'/8a'/8b'/8a'/8b'/8a'/8b'/8a'/8b'/8a'/8b'/8a'/8b'/8a'/8b'/8a'/8b'/8a'/8b'/8a'/8b'/8a'/8b'/8a'/8b'/8a'/8b'/8a'/8b'/8a'/8b'/8a'/8b'/8a'/8b'/8 | %155
 a'/8b'/8a'/8b'/8a'/8b'/8a'/8b'/8a'/8b'/8a'/8b'/8a'/8b'/8a'/8b'/8a'/8b'/8a'/8b'/8a'/8b'/8a'/8b'/8a'/8b'/8a'/8b'/8a'/8b'/8a'/8b'/8a'/8b'/8a'/8b'/8a'/8b'/8a'/8b'/8!<)!!p! =g'/a'/ | %156
!pp!!8va(! d''/4e''/4d''/4e''/4d''/8e''/8d''/8e''/8d''/8e''/8d''/8e''/8 c''/d''/ e''/b/c'/e'/g'/b'/ | %157
 c''/=a'/f'/g'/f'/c'/!8va)! b/f'/=d'/_c'/b/f/ | b/=d'/f'/d'/b/f/ b/_c'/b/g/e/B/ | A z z4 | %160
[Q:1/4=56] z6[Q:1/4=52] |!pp![Q:1/4=50] a3 e2 a | %162
 aad'!<(! !arpeggio![^c=e=a^c']!arpeggio![eac'=e']!<)!!p!!arpeggio!!tenuto![ac'e'=a'] | %163
!pp! _a3 _e2 a | aad'!<(! !arpeggio![^c=e=a^c']!arpeggio![eac'=e']!arpeggio![ac'e'=a']!<)! | %165
!p! !arpeggio!!tenuto![_a_d'f'_a']!pp! !arpeggio![A,DF]!arpeggio![DFA] !arpeggio![FAd]!arpeggio![Adf]!arpeggio![dfa] | %166
[Q:1/4=44] !arpeggio![fad']!arpeggio![ad'f']!arpeggio![d'f'a']!8va(! [f'a'd'']!8va)! z z | %167
[Q:1/4=40] !arpeggio![Adfad'] z z4 | z2!ppp! z [DF]2 z | D2 z z2 z | z6 |] %171
V:2
 z6 | z6 | z6 | z6 | z6 | z6 | z6 | z6 | z6 | z6 | z6 | z6 |!pp! D,A,D G z z | %13
!ped! D,A,D G z z!ped-up! |!ped! D,A,D G z!ped-up! z |!ped! D,A,D G z!ped-up! z | %16
!ped! [D,A,D]2 z!ped-up!!<(! [C,A,]2 z |!ped! [B,,F,B,]2 z!<)! [__B,,G,D]2 z!ped-up! | %18
!p!!ped! [A,D]3!ped-up!!ped! [G,B,=E]3!ped-up! |!ped! [F,=A,CF]!pp! F,,/C,/F,/A,/ z z2!ped-up! | %20
 z6 | z4 z z |[K:treble]!pp! z .[^Fc] z z .[=A,C=E=G] z | %23
 z .[^G,=D=F] z[K:bass] .[=E,=G,=D] z [=A,,E,] | [=D,,=A,,=D,] z z4 | z6 | z6 | %27
 z2 z z2[K:treble] =g | f/=e/=d/e/f/d/ ^c/d/=B/d/^B/c/ | f/=e/=d/e/f/d/ ^c/d/=B/d/^B/c/ | %30
 =d/^c/=B/=A/=G/^F/ c/B/A/G/F/=E/ | =d/^c/=B/=A/=G/^F/ c/B/A/G/F/=E/ | %32
 ^F/=E/=D/^C/=B,/=A,/ =G,/A,/B,/C/D/E/ | ^F/=E/=D/^C/=B,/=A,/ =G,/A,/B,/C/D/E/ | %34
 ^F/=G/=A/=B/^c/=d/ =e/=g/e/.d/.c/.d/ | =e/=g/e/.=d/.^c/.d/ e/g/e/.d/.c/.d/ | %36
 .^c/.c/.c/.c/.c/.c/ .c/.c/.c/.c/.c/.c/ | %37
 =d/ z/ z z .[=D^F=A]/.[DF=B]/.[DFA]/.[DFB]/.[DFA]/.[DFB]/ | %38
 .[=D^F=A]/ z/ z z[K:bass] .[=D,,^F,,=A,,]/.[D,,F,,=B,,]/.[D,,F,,A,,]/.[D,,F,,B,,]/.[D,,F,,A,,]/.[D,,F,,B,,]/ | %39
 [=D,,^F,,=A,,]/ z/ z z[K:treble] .[=D^F=A]/.[DF=B]/.[DFA]/.[DFB]/.[DFA]/.[DFB]/ | %40
 .[=D^F=A]/.[DF=B]/.[DFA]/.[DFB]/.[DFA]/.[DFB]/ .[_E_G_A]/.[EG_B]/.[EGA]/.[EGB]/.[EGA]/.[EGB]/ | %41
[K:bass] z .[_D,_A,].[_D,,_A,,] z .[D,A,].[D,,A,,] | z .[D,A,].[D,,A,,] z .[D,A,].[D,,A,,] | %43
 z .[D,A,].[D,,A,,] z .[D,A,].[D,,A,,] | z .[D,A,].[D,,A,,] z .[D,A,].[D,,A,,] | %45
 z .[D,A,].[D,,A,,] z .[C,A,].[C,,A,,] | z .[_C,A,].[_C,,A,,] z .[__B,,G,].[__B,,,G,,] | %47
 z .[A,,A,].[A,,,A,,] z .[G,,,G,,].[=G,,,=G,,] | %48
[K:treble] Td/e/d/4e/4d/4e/4 .c/.d/ .a/4.g/4.f/4.e/4.d/4.c/4.B/4.A/4(3.c/4.B/4.A/4(3.G/4.F/4.E/4 | %49
 z/ [DFA][A,DF][F,A,D]/ z/ [CGA][A,CG][G,A,C]/ | z/ [DFA][A,DF][F,A,D]/ z/ [CGA][A,CG][G,A,C]/ | %51
 z/ [FA][A,F][F,A,D]/ z/ [CGA][A,CG][G,A,C]/ | z/ [DFA][A,DF][F,A,D]/ z/ [CGA][A,CG][G,A,C]/ | %53
 z/ [DFA][A,DF][F,A,D]/ z/ [EGA][A,EG][G,A,D]/ | z/ [DFA][A,DF][F,A,D]/ z/ [Gd][DG][G,D]/ | %55
 z/ [FAd][DA][A,D]/ z/ [=EBd][B,E][B,CE]/ | %56
 .[=A,CF][K:bass]!pp!!ped! C,/F,/=A,/C/!ped-up!!ped! z2 z!ped-up! | %57
!ped! F,/=A,/C/!ped-up!F/[K:treble]!ped! =A/c/ f/=a/c'/f'/!fermata!=a'!ped-up! || %58
[K:F][K:bass]!pp! z"_cresc." =B,,C, z2 ^G, |A, z z[K:treble] EF z | z [^Fc] z z [A,CE=G] z | %61
[K:bass] z !^![_G,C_E] z [_D,F,=B,] =B,,C, | =G,/_A,/ z[K:treble] G/_A/ z =B/c/ z | %63
 g/_a/ z g'/_a'/ z .[fc'] z | z .[^fc'] z z .[Ace=g] z | z .[_Gc_e] z .[_D=B] !>!=B,C | %66
 ^F/=G/ z ^D/E/ z[K:bass] ^B,/^C/ z | %67
 F,/=B,/ z [^G,DF]/[I:staff -1]=B/[I:staff +1] z[K:treble] [A,EA] z | z!ped! x x4!ped-up! | %69
!ped! [^Gd][=G^c][^F=c]!ped-up!!ped! [=F=B][E_B][_EA]!ped-up! | [A,DA] !>!=e=f !>!^A=B E | %71
 z2 x z2[K:bass] [A,,^C,] | z!ped! x x4!ped-up! | %73
!ped! [^G,D][G,^C][^F,=C]!ped-up!!ped! [=F,=B,][E,_B,][_E,A,]!ped-up! | %74
 [A,,D,A,] =EF ^A,=B, [=A,,E,] | %75
 z2[I:staff -1] ^C/[I:staff +1]A,/ ^F,/E,/^C,/A,,/ [A,,,^C,,^F,,]/E,,/ | %76
 z2[I:staff -1] D/^C/[I:staff +1] z2 ^C,/A,,/ | z2[I:staff -1] ^F/E/[I:staff +1] z2 ^C,/A,,/ | %78
 z2[K:treble] =B/A/G/E/ z[K:bass] x | %79
!>(! D,/^C,/=B,,/A,,/^G,,/A,,/ _B,,/A,,/=B,,/A,,/_B,,/!>)!!pp!A,,/ | %80
[K:treble] z .^G/.A/.G/.A/ z .G/.A/.G/.A/ | z ^G/A/^G/A/ z ^G/A/^G/A/ | z ^G/A/^G/A/ z ^G/A/^G/A/ | %83
 z ^G/A/G/A/ z G/A/G/A/ | z ^G/A/G/A/ z G/A/G/A/ | z ^G/A/^G/A/ z ^G/A/^G/A/ | %86
 z ^G/A/^G/A/ z ^G/A/^G/A/ | z ^G/A/G/A/ z G/A/G/A/ | z ^E/^F/E/F/ z[K:bass] A,/^A,/^C/D/ | %89
 z ^B,/^C/B,/C/ z ^D/E/D/E/ | z ^E/^F/E/F/ z A,/^A,/^C/D/ | z ^B,/^C/B,/C/ z ^D/E/D/E/ | %92
 z ^C/=D/C/D/ z C/D/^E/^F/ | z ^D/=E/D/E/ z[K:treble] ^F/G/F/G/ | z ^C/D/C/D/ z C/D/^E/^F/ | %95
 z ^D/=E/D/E/ z ^F/G/F/G/ | %96
 z/!mp! A/a/[I:staff -1].a/.a'/.a/[I:staff +1] z/ A,/A/[I:staff -1].A/.a/.A/ | %97
[I:staff +1] z/ A/a/[I:staff -1].a/.a'/.a/[I:staff +1] z/ A,/A/[I:staff -1].A/.a/.A/ | %98
[I:staff +1][K:bass] z/ F,/E,/_E,/D,/D/ ^C/D/D,/F,/B,/D/ | _E/=B,/C/D/E/=E/ F/E/F/D/_E/D/ | %100
 _E/=B,/C/D/E/=E/ F/E/F/D/_E/^C/ | _E/^C/E/D/A,/B,/ C/D/C/D/A,/B,/ | %102
 A,/^G,/A,/F,/D,/D/ ^C/D/D,/F,/B,/D/ | _E/=B,/C/D/E/=E/ F/E/F/D/_E/D/ | %104
 _E/=B,/C/D/E/=E/ F/E/F/D/_E/^C/ | _E/^C/E/D/A,/B,/ C/D/C/D/A,/B,/ | %106
 D/D,/[I:staff -1]d/d'/[I:staff +1][K:treble] D/d/[I:staff -1] d/d'/[I:staff +1] G/g/[I:staff -1]g/g'/ | %107
[I:staff +1] d/d'/[I:staff -1]d'/d''/[I:staff +1] d/d'/[I:staff -1]d'/d''/[I:staff +1] d/d'/[I:staff -1]d'/d''/ | %108
[I:staff +1] D/d/[I:staff -1]d/d'/[I:staff +1] D/d/[I:staff -1]d/d'/[I:staff +1] G/g/[I:staff -1]g/g'/ | %109
[I:staff +1] d/d'/[I:staff -1]d'/d''/[I:staff +1] d/d'/[I:staff -1]d'/d''/[I:staff +1] d/d'/[I:staff -1]d'/d''/ | %110
[I:staff +1] g z z z2 z | z6 | z6 | z2 z z2 z | z .[^Fc] z z .[A,CE=G] z | %115
[K:bass] z .[_G,C_E] z .[_D,F,=B,] !>!=B,,C, | G,/_A,/ z[K:treble] G/_A/ z =B/c/ z | %117
 g/_a/ z g'/_a'/ z .[fc'] z | z .[^fc'] z z .[Ace=g] z | z .[_Gc_e] z .[_D=B] !>!=B,C | %120
 ^F/=G/ z ^D/E/ z[K:bass] ^B,/^C/ z | %121
 F,/=B,/ z [^G,DF]/[I:staff -1]=B/[I:staff +1] z[K:treble] [A,EA] z | z!ped! x x4!ped-up! | %123
!ped! [^Gd][=G^c][^F=c]!ped-up!!ped! [=F=B][E_B][_EA]!ped-up! | [A,DA] !>!=e=f !>!^A=B E | %125
 z2 x z2[K:bass] [A,,^C,] | z!ped! x x4!ped-up! | %127
!ped! [^G,D][G,^C][^F,=C]!ped-up!!ped! [=F,=B,][E,_B,][_E,A,]!ped-up! | %128
 [A,,D,A,] =EF ^A,=B, [=A,,E,] | z2 ^C/A,/ ^F,/E,/^C,/A,,/ [A,,,^C,,^F,,]/E,,/ | %130
 z2[I:staff -1] D/^C/[I:staff +1] z2 ^C,/A,,/ | z2[I:staff -1] ^F/E/[I:staff +1] z2 ^C,/A,,/ | %132
 z2[K:treble] =B/A/[K:bass] z2 ^C,/A,,/ | z2 =B,/A,/ E,/^C,/A,,/E,,/ C,,/A,,,/ | %134
 _G,,,/_D,,/_E,,/__B,,/[I:staff -1]_D,/_E,/[I:staff +1] z z2 |[K:treble] x6 | x6 | %137
 x[K:bass] x x (5:4:5_A,/4G,/4E,/4D,/4__B,,/4[I:staff -1](5:4:5_E/4_D/4__B,/4_A,/4_G,/4[I:staff +1]E,/4D,/4B,,/4_A,,/4 | %138
 _G,,/4__B,,/4_D,/4_E,/4G,[I:staff -1]__B,/4_D/4_E/4_G/4[I:staff +1] z z2 | %139
!ped! !arpeggio![_A,,_E,_G,_A,]!ped-up! z z x x2 | %140
!ped! !arpeggio![_A,,_E,_G,_A,]!ped-up! z z z2 z | z6 | z6 | z6 | z2 z z2 z | z6 ||[K:Db] z6 | z6 | %148
 z6 | z6 | A,B,D E2 E | DEF G2 G |[K:treble] FGA __B2 B | %153
 __B,/=D/E/F/G/=G/ (3A/_B/c/(3=d/e/f/(3g/=g/a/ | %154
 a/4b/4a/4b/4a/8b/8a/8b/8a/8b/8a/8b/8a/8b/8a/8b/8a/8b/8a/8b/8a/8b/8a/8b/8a/8b/8a/8b/8a/8b/8a/8b/8a/8b/8a/8b/8a/8b/8a/8b/8a/8b/8a/8b/8 | %155
 a/8b/8a/8b/8a/8b/8a/8b/8a/8b/8a/8b/8a/8b/8a/8b/8a/8b/8a/8b/8a/8b/8a/8b/8a/8b/8a/8b/8a/8b/8a/8b/8a/8b/8a/8b/8a/8b/8a/8b/8 =g/a/ | %156
 d'/4e'/4d'/4e'/4d'/8e'/8d'/8e'/8d'/8e'/8d'/8e'/8 c'/d'/ e'/B/c/e/g/b/ | %157
 c'/=a/f/g/f/c/ B/f/=d/_c/B/F/ | B/=d/f/d/B/F/ B/_c/B/G/E/B,/ | A,/ z/ z z4 | z6 | %161
[K:bass] [D,A,][A,DF][DFA] [D,A,][A,EG][CGA] | %162
!ped! !arpeggio![D,A,]!arpeggio![F,A,DF]!arpeggio![A,DFA]!ped-up!!ped! !arpeggio![=A,^C][I:staff -1]!arpeggio![^C=E=A^c]!arpeggio![EAc=e]!ped-up! | %163
[I:staff +1] [D,_A,][A,DF][DFA] [D,A,][A,_EG][CGA] | %164
!ped! !arpeggio![D,A,]!arpeggio![F,A,DF]!arpeggio![A,DFA]!ped-up!!ped! !arpeggio![=A,^C][I:staff -1]!arpeggio![^C=E=A^c]!arpeggio![EAc=e]!ped-up! | %165
[I:staff +1] z!ped! !arpeggio![A,,D,F,]!arpeggio![D,F,A,]!ped-up!!ped! !arpeggio![F,A,D][I:staff -1]!arpeggio![A,DF]!arpeggio![DFA]!ped-up! | %166
[I:staff +1][K:treble]!ped! !arpeggio![FAd]!arpeggio![Adf]!arpeggio![dfa]!ped-up! [fad'] z z | %167
[K:bass]!ped! !arpeggio![D,A,DF]!ped-up! z z4 | z2 z [F,A,]2 z | [F,A,]2 z z2 z | z6 |] %171
V:3
 x6 | x6 | x6 | x6 | x6 | x6 | x6 | x6 | x6 | x6 | x6 | x6 | x6 | x6 | x6 | x6 | F2 z [EA]2 z | %17
 [FB]2 z [Gd]2 z | d3 =e3 | x6 | x6 | x6 | x6 | x6 | x6 | x6 | x6 | x6 | x6 | x6 | %30
 ^f/=e/=d/^c/=B/=A/ e/d/c/B/A/=G/ | ^f/=e/=d/^c/=B/=A/ e/d/c/B/A/=G/ | x6 | x6 | x6 | x6 | x6 | %37
 x6 |[K:bass] x6 | x6 |[K:treble] x6 | x6 | x6 | x3 x/ .[C_G]/.[CG]/.[CG]/.[CG]/.[CG]/ | x6 | %45
 x3 .[A_eg]/.[=Ge_g]/.[Aeg]/.[Beg]/.[=Ge_g]/.A/ | x6 | x6 | x6 | x6 | x6 | x6 | x6 | x6 | x6 | x6 | %56
 x6 | x9/2!8va(! x3/2!8va)! ||[K:F] x3[K:bass] F,F, x | x [F,A,]2 x x[K:treble] x | x6 | %61
 x x x x _A,=A, | x =B, x =B x f | x =b x!8va(! x3!8va)! | x6 | x x x x _A=A | %66
 x [B=d] z A x [E=G] | x D x d^c z | x6 | x6 | x d2 d2 ^c | x6 | x6 | x6 | x D2 D2 ^C | x6 | x6 | %77
 x6 | x6 | x6 | x .[df].[df] x .[df].[df] | x [e=g][e=g] x [e=g][e=g] | x [e=g][e=g] x [e=g][e=g] | %83
 x [df][df] x [df][df] | x [df][df] x [df][df] | x [e=g][e=g] x [e=g][e=g] | %86
 x [e=g][e=g] x [e=g][e=g] | x [df][df] x [df][df] | x =BB x ^FB | x ^FF x ^cc | x =BB x ^FB | %91
 x ^FF x AA | x AA x Ad | x AA x ee | x AA x Ad | x AA x ee | x6 | x6 | x6 | x6 | x6 | x6 | x6 | %103
 x6 | x6 | x6 | x6 | x6 | x6 | x6 |!8va(! x!8va)! x5 | x6 | x6 | x6 | x6 | x x x x _A,=A, | %116
 x =B, x =B x f | x =b x!8va(! x3!8va)! | x6 | x x x x _A=A | x [B=d] z A x [E=G] | x D x d^c z | %122
 x6 | x6 | x d2 d2 ^c | x6 | x6 | x6 | x D2 D2 ^C | x6 | x6 | x6 | x6 | x6 | %134
 x2[K:bass] x3/2[K:treble] x5/2 |!8va(! x!8va)! x5 | x6 | x4[K:bass] x2 |[K:treble] x6 | %139
 !arpeggio![_D_E] z z z2 z | !arpeggio![CE] z z z2 z | x6 | x6 | x6 | x6 | x6 ||[K:Db] x6 | x6 | %148
 x6 | x6 | x6 | x6 | x6 | x6 | x6 | x6 |!8va(! x6 | x3!8va)! x3 | x6 | x6 | x6 | %161
 !arpeggio![Fd] z z !arpeggio![Gc] z z | %162
 !arpeggio![Fd]!arpeggio![Adf]!arpeggio![dfa] !arpeggio![=E=A] x x | %163
 !arpeggio![Fd] z z !arpeggio![_G=c] z z | %164
 !arpeggio![Fd]!arpeggio![Adf]!arpeggio![dfa] !arpeggio![=E=A] x x | !arpeggio![F_A_df] x2 x x2 | %166
 x3!8va(! x!8va)! x2 | x6 | x6 | x6 | x6 |] %171
V:4
 x6 | x6 | x6 | x6 | x6 | x6 | x6 | x6 | x6 | x6 | x6 | x6 | x6 | x6 | x6 | x6 | x6 | x6 | x6 | %19
 x6 | x6 | x6 |[K:treble] x6 | x3[K:bass] x3 | x6 | x6 | x6 | x5[K:treble] x | x6 | x6 | x6 | x6 | %32
 x6 | x6 | x6 | x6 | x6 | x6 | x3[K:bass] x3 | x3[K:treble] x3 | x6 |[K:bass] x6 | x6 | x6 | x6 | %45
 x6 | x6 | x6 |[K:treble] x6 | x6 | x6 | x6 | x6 | x6 | x6 | x6 | x[K:bass] x5 | x2[K:treble] x4 || %58
[K:F][K:bass] x [F,,A,,][F,,A,,] x2 [C,F,] |[C,F,] x x[K:treble] [A,C]2 x | x6 | %61
[K:bass] x x x x !>!F,,2 | [_D,F,] x[K:treble] [_DF] x [F=A] x | [_df] x _d' x x2 | x6 | %65
 x x x x F,2 | [_B,=D] x [A,^C] x[K:bass] [E,A,] x | [^G,,D,] x x4[K:treble] | x6 | x6 | %70
 x =B2 E2 ^A, | x5[K:bass] x | x6 | x6 | x =B,2 E,2 z | x6 | x6 | x6 | x2[K:treble] x3[K:bass] x | %79
 x6 |[K:treble] x .[DF].[DF] x .[DF].[DF] | x [E=G][E=G] x [E=G][E=G] | x [E=G][E=G] x [E=G][E=G] | %83
 x [DF][DF] x [DF][DF] | x [DF][DF] x [DF][DF] | x [E=G][E=G] x [E=G][E=G] | %86
 x [E=G][E=G] x [E=G][E=G] | x [DF][DF] x [DF][DF] | x =B,B, x[K:bass] ^F,=B, | x ^F,F, x ^CC | %90
 x =B,B, x ^F,B, | x ^F,F, x A,A, | x A,A, x A,D | x A,A, x[K:treble] EE | x A,A, x A,D | %95
 x A,A, x EE | x6 | x6 |[K:bass] x6 | x6 | x6 | x6 | x6 | x6 | x6 | x6 | x2[K:treble] x4 | x6 | %108
 x6 | x6 | x6 | x6 | x6 | x6 | x6 |[K:bass] x x x x F,,2 | [_D,F,] x[K:treble] [_DF] x [F=A] x | %117
 [_df] x _d' x x2 | x6 | x x x x F,2 | [_B,=D] x [A,^C] x[K:bass] [E,A,] x | %121
 [^G,,D,] x x4[K:treble] | x6 | x6 | x =B2 E2 ^A, | x5[K:bass] x | x6 | x6 | x =B,2 E,2 z | x6 | %130
 x6 | x6 | x2[K:treble] x[K:bass] x3 | x6 | x6 |[K:treble] x6 | x6 | x[K:bass] x5 | x6 | x6 | x6 | %141
 x6 | x6 | x6 | x6 | x6 ||[K:Db] x6 | x6 | x6 | x6 | x6 | x6 |[K:treble] x6 | x6 | x6 | x6 | x6 | %157
 x6 | x6 | x6 | x6 |[K:bass] x6 | x6 | x6 | x6 | x6 |[K:treble] x6 |[K:bass] x6 | x2 x [D,,D,]2 z | %169
 [D,,A,,D,]2 x x2 x | x6 |] %171
V:5
 z6 | z6 | z6 | z6 |!p! a3 e2 f | a6 | dcB e2 e | A6 |!<(! ABd e2 e | def!<)!!p! g2!<(! g | %10
 fga!<)!!mp! __b2!>(! b |!p! __B3- B2!>)!!p! A |!pp! [FAd][EGc][DFB] [CEA]3 | %13
 [FAd][EGc][DFB] [CEA]3 | [FAd][EGc][DFB] [CEA]3 | [FAd][EGc][DFB] [CEA]2 [B,DG] | [A,DF]3 [EA]3 | %17
!<(! [FB]3 d3 | d2 A!<)!!p! B3 | [CF=A]3 z2!pp! [=Af] | [B=d]2 [^G=e] [=Ac]2 [=D=F] | %21
 [_D=EB]z.[DEB] z DC | z6 | z2 z z2!p! [=g=a] | =b/^c'/=d'/c'/d'/b/ [=g=a]3 | %25
!p! [=d^f=b]/[=e=g^c']/[f=a=d']/[egc']/[fad']/[dfb]/ [ga]3 |!p! ^f/=a/=b=d =e/=g/=a^c | %27
 =B/^c/=d/^F/F/=E/ E/B/.B/ [=DE]/[=B,=G]/ [B,^C]/ | [=A,=D] z z z2 z | z6 | z6 | z6 |!mp! z6 | %33
 =a3 =e2 =b | =a z z z2 z |!mp! =A z z z2 z | =A, z z z2 z | z6 | z6 | z6 | z6 |!mp! A3 E2 B | A6 | %43
 DCB, E2 E | A,6 | A,B,D!<(! E2 E | DEF G2!<)!!mp! G | FGA __B2 B | z!p!!>(! DD!mp! z!p! CC!>)! | %49
!mp! a3 e2 b | a6 | dcB e2 e | A6 |"_cresc." ABd e2 e | def g2 g | fga!mf! [B=eb][dd'][cc'] | %56
!p! [c-f-c']6 |!pp! [F=Acf] z z2 z2 ||[K:F] z6 | z6 | z6 | z6 | z6 | z6 | z6 | z6 | z6 | z6 | %68
!mf! [=Bdf=b] z z z2 z | z6 |!mp! [=Bdf=b] z z z2 z | z6 |!mf! [=B,DF=B] z z z2 z | z6 | %74
!mp! [=B,DF=B] z z z2 z | z6 | z6 | z6 | z6 | z2 z z2!pp! [^F^f] | [Ee]2 [Dd] [^C^c][Dd][=B,=B] | %81
 [=B,=B]2 E [^C^c]2 [B,B] | [=B,=B]2 E [^C^c]2 [B,B] | =B2 ^F BA[^F^f] | %84
 [Ee]2 [Dd] [^C^c][Dd][=B,=B] | [=B,=B]2 E [^C^c]2 [B,B] | [=B,=B]2 E [^C^c]2 [B,B] | %87
 [=B,=B]2 ^F [B,B][A,A] [^F^f] | z2 z z2 [gg'] | [^f^g']2 [ee'] [dd'][^G^g][^A^a] | %90
 [_B_b] z z z2 [gg'] | [^f^f']2 [ee'] [dd'][=B=b][^c^c'] | [dd'] z z z2 [=B=b] | %93
 [Aa]2 [Gg] [^F^f][=B,=B][^C^c] | [Dd]2 z z2 [=B=b] | [Aa]2 [Gg] [^F^f][=B,=B][^C^c] | %96
 [Dd] z z z2 [^f^f'] | [gg']2 [=f=f'] [_e_e']2 [Aa] |!p! [cc']2 [Bb] [Aa][Bb][Gg] | %99
 [Gg]2 [Cc] [Aa]2 [Gg] | [Gg]2 [Cc] [Aa]2 [Gg] | [Gg]2 [Dd] [Gg][Ff][dd'] | %102
 [cc']2 [Bb] [Aa][Bb][Gg] | [Gg]2 [Cc] [Aa]2 [Gg] | [Gg]2 [Cc] [Aa]2 [Gg] | %105
 [Gg]2 [Dd] [Gg][Ff][dd'] |!<(! [cc']2 [Bb] [Aa]2 [Gg] | [Gg][^E^e][^F^f] [Dd]2 x | %108
 [cc']2 [Bb] [Aa]2 [Gg] | [Gg][^E^e][^F^f] [Dd]2 x!<)! |!f! [cc']2!>(! [Bb] [Aa]2 [Gg] | %111
 [Bb]2 [Gg] [Ff]2 [_E_e] | [Bb]2 _d c2 B | A2 B _E=E!>)!!pp!F | z6 | z6 | z6 | z6 | z6 | z6 | z6 | %121
 z6 |!mf! [=Bdf=b] z z z2 z | z6 |!mp! [=Bdf=b] z z z2 z | z6 |!mf! [=B,DF=B] z z z2 z | z6 | %128
!mp! [=B,DF=B] z z z2 z | z6 | z6 | z6 | z6 | z6 |!f! [__B_d_e__b] z z4 | z6 | z6 | z6 | z6 | z6 | %140
 z6 | z6 | z6 | z6 | z6 | z6 ||[K:Db]!pp! [A,A]3 ABc | [Fd][Ec][DB] A3 | A6- | A6 | A3 A3 | %151
!<(! A3 [Dd]3!<)! |!p! [Dd]6 |!pp! [__B,E__B]3 [A,EA] z z |!mp! !>!a3 !>!e2 !>!b | !>!a6 | %156
!p! !>!d!>!e!>!f !>!g2 !>!g | !>!c!>!d!>!e !>!f2 !>!f | !>!=d!>!c!>!d !>!e!>!f!>!g | abc' d'3 | %160
!>(! d'/a/b/a/f/d/ A/=G/A/B/_c/=c/!>)! |!pp! [DAd] z z z2 z | d3 =G2 d | [D=FAd] z z z2 z | %164
 d3 =G2 d | [d=fa]3 [df]2 [dfa] | [dfa]3- [dfa].[d'f'a'].[ad'f'] | .[fad'].[dfa].[df] [Ad][DA] A | %168
 [dfa]6- |!ppp! [dfa]6- | [dfa]2 z z2 z |] %171
V:6
!pp! .[DFA]2 z .[DGA]2 z | .[DFA]2 z .[DEGA]2 z | .[DFA]2 z .[DGA]2 z | .[DFA]2 z .[DEGA]2 z | %4
 .[DFA]2 z .[DGA]2 z | .[DFA]2 z .[DEGA]2 z | .[DFA]2 z .[DGA]2 z | .[DF]2 z .[DEG]2 z | %8
 [DF]2 z [CEGA]2 z | .[_CDFA]2 z .[__B,DG]2 z | .[A,DF]2 z .[G,DE]2 z | .[DEG]2 z .[CEG]2 z | %12
[K:bass]!ped! [D,A,]3!ped-up![K:treble] G3 |[K:bass]!ped! [D,A,]3!ped-up![K:treble] G3 | %14
[K:bass]!ped! [D,A,]3!ped-up! G3 | [D,A,]6 | D,3!ped! [C,A,]3!ped-up! | %17
!ped! [B,,B,]3!ped-up!!ped! [__B,,__B,]3!ped-up! |!ped! [A,,A,]3!ped-up!!ped! [G,,G,]3!ped-up! | %19
!ped! [F,,F,]3!ped-up! z2 z | z[K:treble] .[^Fc] z z .[=A,C=E=G] z | %21
[K:bass] z .[_G,C_E] z .[_D,F,=B,] =B,,C, | z6 | z6 |!pp! [=D,,=A,,]2 [D,,A,,]2 [D,,A,,]2 | %25
 [=D,,=A,,]2 [D,,A,,]2 [D,,A,,]2 | [=D,,=A,,]2 [D,,A,,]2 [D,,A,,]2 | %27
 [=D,,=A,,]2 [D,,A,,]2 [D,,A,,]2 | [=D,,=A,,]2 [D,,A,,]2 [D,,A,,]2 | %29
 [=D,,=A,,]2 [D,,A,,]2 [D,,A,,]2 | [=D,,=A,,]2 [D,,A,,]2 [D,,A,,]2 | %31
 [=D,,=A,,]2 [D,,A,,]2 [D,,A,,]2 | [=D,,=A,,]6 | [=D,,=A,,]6 | [=D,,=A,,]6 | [=D,,=A,,]6- | %36
 [D,,A,,]3- [D,,A,,] z2 | z6 | z6 | z6 | z6 |!ped! z6!ped-up! | z6 |!ped! z6!ped-up!!ped!!ped-up! | %44
 z6 |!ped!!p! D,3!ped-up!!<(!!ped! C,3!ped-up! |!ped! A,3!ped-up!!ped! G,3!<)!!ped-up! | %47
!p!!ped! A,E,F,!ped-up! G,2 _F, | %48
!ped! z!>(! [=G,,_F,][G,,F,]!ped-up!!ped! z [A,,E,][A,,E,]!>)!!ped-up! | %49
!p!!ped! [D,,A,,D,F,][D,A,][D,A,]!ped-up! z [D,A,][D,A,] |!ped! F,A,D!ped-up!!ped! E=DE!ped-up! | %51
!ped! F3!ped-up!!ped! G2 G,!ped-up! |!ped! F,A,D!ped-up!!ped! E=DE!ped-up! | %53
!ped!"_cresc." A,3!ped-up!!ped! A,B,C!ped-up! |!ped! D2 D!ped-up!!ped! [__B,,_G,]3!ped-up! | %55
!ped! x GF!ped-up!!mp!!ped! x x2!ped-up! |!ped! [F,-=A,F]6 | [F,C]!ped-up! z z2 z2 ||[K:F] z6 | %59
 z6 | z6 | z6 | z6 | z6 | z6 | z6 | z6 | z6 | [A,DF] z z z2 z | z6 | [A,DF] z z z2 z | z6 | %72
 [A,,D,F,] z z z2 z | z6 | [A,,D,F,] z z z2 z | z6 | z6 | z6 | z6 | z6 |!p! D,2 z A,,2 z | %81
 ^C,2 E, A,,2 z | ^C,2 E, A,,2 z | =B,2 ^F, B,A, z | D,2 z A,,2 z | ^C,2 E, A,,2 z | %86
 ^C,2 E, A,,2 z | D,2 ^F, D,,2 z | =B,,2 z ^F,,2 z | ^C,2 z ^F,,2 z | =B,,2 z ^F,,2 z | %91
 ^C,2 ^F,, =A,,2 z | D,2 z A,,2 z | E,2 z A,,2 z | D,2 z A,,2 z | E,2 z A,,2 z | D,2 z A,,2 z | %97
 z2 z G,_G, [F,F] | F,6- | F,6 | F,6- | F,6 | F,6- | F,6 | F,6- | F,6 | G,3 G, z z | %107
 [A,,A,]2 z [D,,D,]2 z | [G,,G,]2 z [D,,D,]2 z | [A,,A,]2 z [D,,D,]2 z | %110
!ped! [G,,G,] _ED!ped-up!!ped! z ED!ped-up! |!ped! z D_E!ped-up!!ped! z DE!ped-up! | %112
!ped! z ^D=E!ped-up!!ped! z DE!ped-up! |!ped! z C_D!ped-up!!ped! C,3!ped-up! | z6 | z6 | z6 | z6 | %118
 z6 | z6 | z6 | z6 | [A,DF] z z z2 z | z6 | [A,DF] z z z2 z | z6 | [A,,D,F,] z z z2 z | z6 | %128
 [A,,D,F,] z z z2 z | z6 | z6 | z6 | z6 | z6 |!ped! [_G,,_D,_E,_G,] z!ped-up! z4 | z6 | z6 | z6 | %138
 z6 | z6 | z6 | z6 | z6 | z6 | z6 | z6 ||[K:Db]!ped! F,A,B, CDE!ped-up! | %147
!ped! A,3 C=B,_B,!ped-up! | A,G,F, E,D,E, | F,G,A, B,CB, | A,G,F, A,B,C | A,G,F, E,F,G, | %152
 A,G,F, E,F,G, | [D,G,]3 [C,G,] z z |!p! z [A,DF][DFA] z [A,EG][EGA] | %155
 z [A,DF][DFA] z [A,DF][DFA] | !>!B,,6 | !>!=A,,3 !>!_A,,3 | z [F,B,=D][B,DF] z [G,B,][B,EG] | %159
 z [A,DF][I:staff -1][DF][I:staff +1] z [B,G][DGB] | z [A,DF][DFA] z [A,C][G,A,] | %161
!ped! [D,F,A,] z!ped-up! z z2 z | [D,A,]3 [__B,,__B,]3 | [D,A,] z z z2 z | [D,A,]3 [__B,,__B,]3 | %165
 x6 | x6 | A3 F2 [A,DF] |!ped! [D,F,A,D]3 z2 z | z2 z [D,,D,]2 z | [D,,D,]2!ped-up! z z2 z |] %171
V:7
 x6 | x6 | x6 | x6 | x6 | x6 | x6 | x6 | x6 | x6 | x6 | x6 | x6 | x6 | x6 | x6 | %16
 x3[I:staff +1] A,!pp![I:staff -1]B,C | D2 D D3 | D3 [B,=E]3 | x6 | x6 | x3 x _A,=A, | x6 | x6 | %24
 [^f=a]/[=e=g]/[=df]/[eg]/[fa]/[df]/ ^c/!pp!d/=B/d/^B/c/ | x3 ^c/!pp!=d/=B/d/^B/c/ | %26
 =d/[^c=e]/[=Bd]/[=Ac]/[=GB]/[^FA]/ c/[Bd]/[Ac]/[GB]/[FA]/[=EG]/ | %27
 [=D^F]/[^C=E]/[=B,D]/[=A,C]/[A,C]/[=G,B,]/ [G,B,]/[E=G]/.[EG]/ x3/2 | x6 | x6 | x6 | x6 | %32
 =A3 =E2 =B | =A z z z2 z | =A3 =E2 =B | =A,3 =E,2 =B, | x6 | x6 | x6 | x6 | x6 | x6 | x6 | x6 | %44
 x6 | A,6 | D6 | D6 | __B,3 A,3 | x6 | x6 | x6 | x6 | x6 | x3 EFG | [Ad] [Ad]2 x =e2 | x6 | x6 || %58
[K:F] x6 | x6 | x6 | x6 | x6 | x6 | x6 | x6 | x6 | x6 | x6 | x6 | x6 | x6 | x6 | x6 | x6 | x6 | %76
 x6 | x6 | x6 | x6 | x6 | x6 | x6 | x6 | x6 | x6 | x6 | x6 | [Ee]2 [Dd] [^C^c]2 [=B,=B] | %89
 [=B,=B][A,A][^A,^A] [^F,^F]2 [^F^f] | [Ee]2 [Dd] [^C^c]2 [=B,=B] | %91
 [=B,=B][=A,=A][^A,^A] [B,B][=A,=A][Aa] | [Gg]2 [^F^f] [Ee]2 [Dd] | [Dd][^B,^B][^C^c] [A,A]2 [Aa] | %94
 [Gg]2 [^F^f] [Ee]2 [Dd] | [Dd][^B,^B][^C^c] [A,A]2 [Aa] | [Ga]2 [^F^f] [Ee]2 [Dd] | %97
 [_E_e]3 G_G [dd'] | [Aa]2 [Bb] x x2 | x6 | x6 | x6 | x6 | x6 | x6 | x6 | d3 dcB | A3 =EG[dd'] | %108
 d3 dcB | A3 =EG[dd'] | x6 | x6 | x6 | x3 B,2 A, | x6 | x6 | x6 | x6 | x6 | x6 | x6 | x6 | x6 | %123
 x6 | x6 | x6 | x6 | x6 | x6 | x6 | x6 | x6 | x6 | x6 | x6 | x6 | x6 | x6 | x6 | x6 | x6 | x6 | %142
 x6 | x6 | x6 | x6 ||[K:Db] DFG A3 | A3 A=G_G | FED CB,C | DEF GAG | FED A=G_G | [DF]ED GFE | %152
 D!>(!EF GFE!>)! | x6 | x6 | x6 | z [G,DE][DEG] z [G,CE][CEG] | z [F,CE][CEF] z [F,A,=D][B,DF] | %158
 !>!B3 E2 B | A3 B[I:staff +1]!>!D!>!E |[I:staff -1] F z z F2 E | x6 | [DFA]3 [D_F]3 | x6 | %164
 [DFA]3 [D_F]3 | [D=FA]6 | [DFA]6 | x6 | x6 | x6 | x6 |] %171
V:8
 x6 | x6 | x6 | x6 | x6 | x6 | x6 | x6 | x6 | x6 | x6 | x6 | x6 | x6 | x6 | x6 | x6 | %17
 x3 [EG]F[EG] | AGF x x2 | x6 | x6 | x6 | x6 | x6 | x6 | x6 | x6 | x6 | x6 | x6 | x6 | x6 | x6 | %33
 x6 | x6 | x6 | x6 | x6 | x6 | x6 | x6 | x6 | x6 | x6 | x6 | x6 | x6 | x6 | x6 | x6 | x6 | x6 | %52
 x6 | x6 | x6 | x6 | x6 | x6 ||[K:F] x6 | x6 | x6 | x6 | x6 | x6 | x6 | x6 | x6 | x6 | x6 | x6 | %70
 x6 | x6 | x6 | x6 | x6 | x6 | x6 | x6 | x6 | x6 | x6 | x6 | x6 | x6 | x6 | x6 | x6 | x6 | x6 | %89
 x6 | x6 | x6 | x6 | x6 | x6 | x6 | x6 | x6 | x6 | x6 | x6 | x6 | x6 | x6 | x6 | x6 | x3 x2 _e' | %107
 d'2 c' b=e^f | g z z z2 _e' | d'2 c' b=e^f | x6 | x6 | x6 | x6 | x6 | x6 | x6 | x6 | x6 | x6 | %120
 x6 | x6 | x6 | x6 | x6 | x6 | x6 | x6 | x6 | x6 | x6 | x6 | x6 | x6 | x6 | x6 | x6 | x6 | x6 | %139
 x6 | x6 | x6 | x6 | x6 | x6 | x6 ||[K:Db] x6 | x6 | x6 | x6 | x6 | x6 | x6 | x6 | x6 | x6 | x6 | %157
 x6 | x6 | x6 | x6 | x6 | x6 | x6 | x6 | x6 | x6 | x6 | x6 | x6 | x6 |] %171
V:9
 x6 | x6 | x6 | x6 | x6 | x6 | x6 | x6 | x6 | x6 | x6 | x6 |[K:bass] x3[K:treble] x3 | %13
[K:bass] x3[K:treble] x3 |[K:bass] x6 | x6 | x6 | x6 | x6 | x6 | x[K:treble] x5 | %21
[K:bass] x3 x F,,2 | x6 | x6 | x6 | x6 | x6 | x6 | x6 | x6 | x6 | x6 | x6 | x6 | x6 | x6 | x6 | %37
 x6 | x6 | x6 | x6 | x6 | x6 | x6 | x6 | x6 | _C,3 __B,,3 | A,,3 G,,2 =G,, | x6 | x6 | %50
 z [D,A,][D,A,] z [D,A,][D,A,] | z [D,A,][D,A,] z [D,A,][D,A,] | z [D,A,][D,A,] z [D,A,][D,A,] | %53
 z D,D, A,3 | [_C,A,]3 x x2 | [A,,A,] [A,D]2 [G,,G,] [G,B,=E]2 | x6 | x6 ||[K:F] x6 | x6 | x6 | %61
 x6 | x6 | x6 | x6 | x6 | x6 | x6 | x6 | x6 | x6 | x6 | x6 | x6 | x6 | x6 | x6 | x6 | x6 | x6 | %80
 x6 | x6 | x6 | D,2 z A,,2 x | x6 | x6 | x6 | x2 z x2 x | x6 | x6 | x6 | x6 | x6 | x6 | x6 | x6 | %96
 x6 | C,2 z F,,2 z | B,,2 z F,,2 z | A,,2 z F,,2 z | A,,2 z F,,2 z | G,,2 z F,,2 z | %102
 B,,2 z F,,2 z | A,,2 z F,,2 z | A,,2 z F,,2 z | B,,2 z B,,,2 z | x6 | x6 | x6 | x6 | %110
 x [G,B,]2 z [G,B,]2 | x [G,B,]2 z [G,B,]2 | x [_G,_B,]2 z [G,B,]2 | x [_D,_G,]2 _G,,2 F,, | x6 | %115
 x6 | x6 | x6 | x6 | x6 | x6 | x6 | x6 | x6 | x6 | x6 | x6 | x6 | x6 | x6 | x6 | x6 | x6 | x6 | %134
 x6 | x6 | x6 | x6 | x6 | x6 | x6 | x6 | x6 | x6 | x6 | x6 ||[K:Db] D,6 | D,6 | D,6- | D,6 | %150
 !>!D,3 !>![C,A,]3 | !>!_C,3 !>!__B,,3 | !>!A,,3 !>!G,,3 | x6 | !>!D,3 C,3 | !>!_C,6 | x6 | x6 | %158
 !>!A,,3 !>!G,,3 | !>!F,,3 !>!E,,3 | !>!F,,3 !>!A,,3 | x6 | x6 | x6 | x6 | x6 | x6 | [D,A,D]6 | %168
 x6 | x6 | x6 |] %171
V:10
 x6 | x6 | x6 | x6 | x6 | x6 | x6 | x6 | x6 | x6 | x6 | x6 |[K:bass] x3[K:treble] x3 | %13
[K:bass] x3[K:treble] x3 |[K:bass] x6 | x6 | x6 | x6 | x6 | x6 | x[K:treble] x5 |[K:bass] x6 | x6 | %23
 x6 | x6 | x6 | x6 | x6 | x6 | x6 | x6 | x6 | x6 | x6 | x6 | x6 | x6 | x6 | x6 | x6 | x6 | x6 | %42
 x6 | x6 | x6 | x6 | x6 | x6 | x6 | x6 | x6 | x6 | x6 | x3 C,2 z | x6 | x6 | x6 | x6 ||[K:F] x6 | %59
 x6 | x6 | x6 | x6 | x6 | x6 | x6 | x6 | x6 | x6 | x6 | x6 | x6 | x6 | x6 | x6 | x6 | x6 | x6 | %78
 x6 | x6 | x6 | x6 | x6 | x6 | x6 | x6 | x6 | x6 | x6 | x6 | x6 | x6 | x6 | x6 | x6 | x6 | x6 | %97
 x6 | x6 | x6 | x6 | x6 | x6 | x6 | x6 | x6 | x6 | x6 | x6 | x6 | x6 | x6 | x6 | x6 | x6 | x6 | %116
 x6 | x6 | x6 | x6 | x6 | x6 | x6 | x6 | x6 | x6 | x6 | x6 | x6 | x6 | x6 | x6 | x6 | x6 | x6 | %135
 x6 | x6 | x6 | x6 | x6 | x6 | x6 | x6 | x6 | x6 | x6 ||[K:Db] x6 | x6 | x6 | x6 | x6 | x6 | x6 | %153
 x6 | x6 | x6 | x6 | x6 | x6 | x6 | x6 | x6 | x6 | x6 | x6 | x6 | x6 | x6 | x6 | x6 | x6 |] %171

